X: 18736
T: Icy Snowdrops, The
R: reel
M: 4/4
K: Bdorian
Bffe feBf|Bffe f2e/d/c/B/|Aeed edAe|Aeed e2dc|
Bffe feBf|Bffe f2ef|bafe af/e/ce|1 fBBA B2f2:|2 fBBA B2 (3Bcd||
|:ef (3BBB fB (3BBB|fB/A/ (3FFF BFBc|de (3AAA eA (3AAA|eB/A/ (3EEE AE A/B/c/d/|
ef (3BBB fB (3BBB|dBde (3eee fa|bafe af/e/ ce|1 fBBA B2 (3Bcd:|2 fBBA B2f2||

